src/social-designernews.svg

<?xml version="1.0" encoding="utf-8"?>
<!-- Generated by IcoMoon.io -->
<!DOCTYPE svg PUBLIC "-//W3C//DTD SVG 1.1//EN" "http://www.w3.org/Graphics/SVG/1.1/DTD/svg11.dtd">
<svg version="1.1" xmlns="http://www.w3.org/2000/svg" xmlns:xlink="http://www.w3.org/1999/xlink" width="512" height="512" viewBox="0 0 512 512">
<path fill="#000000" d="M290.4 145l-63.4-49 63.6 102.2z"></path>
<path fill="#000000" d="M329 96v163h-36.4l-63.2-98.6 1.7 98.6h-40.1v-107l-37.3-29.3c1 1.2 2 2.4 2.9 3.7 10 13.9 15 30.5 15 50.5 0 49.2-30.6 82.1-76.9 82.1h-62.7v0.4l199.6 156.6h248.4v-201.9l-151-118.1z"></path>
<path fill="#000000" d="M129.9 178.1c0-29-14.2-45.1-39.7-45.1h-19.2v89h19c26 0 39.9-15.4 39.9-43.9z"></path>
</svg>

<?xml version="1.0" encoding="utf-8"?>
<!-- Generator: Adobe Illustrator 16.2.1, SVG Export Plug-In . SVG Version: 6.00 Build 0)  -->
<!DOCTYPE svg PUBLIC "-//W3C//DTD SVG 1.1//EN" "http://www.w3.org/Graphics/SVG/1.1/DTD/svg11.dtd">
<svg version="1.1" id="Layer_1" xmlns="http://www.w3.org/2000/svg" xmlns:xlink="http://www.w3.org/1999/xlink" x="0px" y="0px"
	 width="512px" height="512px" viewBox="0 0 512 512" style="enable-background:new 0 0 512 512;" xml:space="preserve">
<g>
	<g>
		<polygon points="290.4,145 227,96 290.6,198.2 		"/>
	</g>
	<g>
		<path d="M329,96v79.6V259h-36.4l-63.2-98.6l1.7,98.6H191V152l-37.3-29.3c1,1.2,2,2.4,2.9,3.7c10,13.9,15,30.5,15,50.5
			c0,49.2-30.6,82.1-76.9,82.1H32v0.4L231.6,416H480V214.1L329,96z"/>
	</g>
	<g>
		<path d="M129.9,178.1c0-29-14.2-45.1-39.7-45.1H71v89h19C116,222,129.9,206.6,129.9,178.1z"/>
	</g>
</g>
</svg>
